X: 4
T: Ash Grove v.2
P: piffero secondo a0210
O: Greg Bacon
%R: waltz
F: http://ancients.sudburymuster.org/mus/col/pdf/hymnsF.pdf
Z: 2020 John Chambers <jc:trillian.mit.edu>
M: 3/4
L: 1/8
K: G
z2 |\
B4B2 | d4d2 | cde2fe | d2A2c2 |\
B2d2B2 | c4B2 | A2B2dc | B4 :: z2 |\
f2gabc' | b2a2g2 | g2f2e2 | d4e2 |
d4d2 | g2f2e2 | d2f2ag | fed2c2 |\
B4B2 | d4d2 | cde2fe | d2A2c2 |\
B2d2B2 | c4B2 | A2B2dc | B4 :|
%%text May be played an octave higher.


